X:1
T:Jubilate Deo omnis terra - Schütz
T:#
%%score 1 2 3 4
L:1/8
Q:1/4=90
M:4/4
K:F
V:1 treble nm="Flautino o Violin I" snm="Vn I"
V:2 treble nm="Flautino o Violin II" snm="Vn II"
V:3 bass nm="Bass" snm="B"
V:4 bass nm="Continuo"
V:1
"^Psalm 99 (Vulgate)""^Jubilate Deo omnis terra, SWV 262""^Heinrich Schütz\n (1585-1672)" z2 cc A2 F2 | %1
 z8 |"^presto"[Q:1/4=120] ABcA FEFG | A2 A2 z4 | ABcA FEFG | A2 A2 d2 B2 | %6
[M:2/2][Q:1/4=120][Q:1/4=120][Q:1/4=120][Q:1/4=120] A2 F2 E4 | D4 ^FGAF | DCDE ^F2 F2 | %9
 AG^FD FEFG | A2 A2 z4 | z4 c2 d2 | G2 A2 G4 | F8 |[M:2/2] z8 | z8 | z8 | z8 | z8 | z8 | z8 | z8 | %22
[M:2/2] z8 | z8 | z8 | z8 | z8 | z8 | z8 | z8 |[M:2/2]"^Sinfonia" z8 | F2 A2 F2 D2 | F2 G2 A2 B2 | %33
 c2 d2 c4 | B2 d3 B c2- | cA B3 G A2 | G2 c2 B3 G | A3 F G3 F | F4 A2 c2 | A2 F2 F2 A2 | F2 C2 z4 | %41
 z8 | z8 | z8 | z8 | z8 | z8 | z4 G2 c2- | cA d3 B c2- | cA B3 G A2 | B2 c3 A B2- | BG A3 F G2- | %52
 GE F3 D E2 |[M:2/2] z8 | z8 | z8 | z8 | z8 | z8 | z8 |[M:2/2] z8 | z8 | z8 | z8 | z8 | z8 | z8 | %67
[M:2/2] z8 | z8 | z8 | z8 || z8 | z8 ||[Q:1/4=120] z8 |[M:2/2] z8 | z8 | z8 || z8 | z8 || %79
[Q:1/4=120] z8 | z8 | z8 |[M:2/2] z8 | z8 | z8 | z CDE F2 F2 | z EFG A2 A2 | z GA=B c2 c2 | %88
 z =Bcd e2 d2 | ^c2 d4 c2 | d8 | A6 A2 | A4 A4 | A8 | G4 G4 | F8 | E4 c4 | d8 | c4 c4 | B8 | %100
 A4 A4 | G8 | F4 F4 | E4 F4- | F4 E4 | F8 |"^presto" ABcA FEFG | A2 A2 z4 | ABcA FEFG | %109
 A2 A2 d2 B2 | A2 F2 E4 | D4 ^FGAF | DCDE ^F2 F2 | AG^FD FEFG | A2 A2 z4 | z4 c2 d2 | G2 A2 G4 | %117
 F8 | z8 | z8 | z8 | z8 | z8 | z8 | z8 | z8 | z8 |[M:2/2] z8 | z8 | z8 | z8 | z8 |[M:2/2] z8 | z8 | %134
 z8 | z8 | z8 | z8 |[M:2/2] z8 | z8 | z8 | z8 ||[Q:1/4=90] z2 cc A2 F2 | z8 | %144
"^presto"[Q:1/4=120] ABcA FEFG | A2 A2 z4 | ABcA FEFG | A2 A2 d2 B2 | A2 F2 E4 | D4 ^FGAF | %150
 DCDE ^F2 F2 | AG^FD FEFG | A2 A2 z4 |[Q:1/4=117] z4[Q:1/4=113] c2[Q:1/4=110] d2 | %154
[Q:1/4=108] G2[Q:1/4=105] A2[Q:1/4=102] G4 |[Q:1/4=100] F16 |] %156
V:2
 z4 z2 cc | A2 F2 z4 |"^presto" FGAF DCDE | F2 F2 z4 | FGAF DCDE | F2 F2 D2 E2 |[M:2/2] ^C2 D4 C2 | %7
 D4 AG^FD | ^FEFG A2 A2 | ^FGAF DCDE | ^F2 F2 z4 | c2 d2 G2 D2 | E2 F4 E2 | F8 |[M:2/2] z8 | z8 | %16
 z8 | z8 | z8 | z8 | z8 | z8 |[M:2/2] z8 | z8 | z8 | z8 | z8 | z8 | z8 | z8 |[M:2/2] F2 A2 F2 D2 | %31
 D2 F2 D2 A,2 | D2 E2 F2 G2 | A2 B4 A2 | B2 B3 G A2- | AF G3 E ^F2 | G2 A3 F G2- | GE F3 D E2 | %38
 F4 F2 A2 | F2 C2 A2 c2 | A2 F2 z4 | z8 | z8 | z8 | z8 | z8 | z8 | z8 | z2 D2 G3 E | F3 d c3 B | %50
 B2 z2 z4 | z2 c2 B3 G | A3 F G3 A |[M:2/2] z8 | z8 | z8 | z8 | z8 | z8 | z8 |[M:2/2] z8 | z8 | %62
 z8 | z8 | z8 | z8 | z8 |[M:2/2] z8 | z8 | z8 | z8 || z8 | z8 || z8 |[M:2/2] z8 | z8 | z8 || z8 | %78
 z8 || z8 | z8 | z8 |[M:2/2] z8 | z8 | z8 | z8 | z CDE F2 F2 | z EFG A2 A2 | z GA=B c2 A2- | %89
 A2 GF E4 | ^F8 | z2 F4 F2 | F4 F4 | F8 | E4 E4 | D8 | ^C4 A4 | F8 | A4 A4 | G8 | F4 F4 | _E8 | %102
 D4 D4 | G4 A4 | G8 | F8 | FGAF DCDE | F2 F2 z4 | FGAF DCDE | F2 F2 D2 E2 | ^C2 D4 C2 | D4 AG^FD | %112
 ^FEFG A2 A2 | ^FGAF DCDE | ^F2 F2 z4 | c2 d2 G2 D2 | E2 F4 E2 | F8 | z8 | z8 | z8 | z8 | z8 | z8 | %124
 z8 | z8 | z8 |[M:2/2] z8 | z8 | z8 | z8 | z8 |[M:2/2] z8 | z8 | z8 | z8 | z8 | z8 |[M:2/2] z8 | %139
 z8 | z8 | z8 || z4 z2 cc | A2 F2 z4 |"^presto" FGAF DCDE | F2 F2 z4 | FGAF DCDE | F2 F2 D2 E2 | %148
 ^C2 D4 C2 | D4 AG^FD | ^FEFG A2 A2 | ^FGAF DCDE | ^F2 F2 z4 | c2 d2 G2 D2 | E2 F4 E2 | F16 |] %156
V:3
 z8 | z2 F,F, C,2 F,,2 | z8 |"^presto" F,G,A,F, B,,C,D,B,, | F,2 F,2 B,2 G,2 | F,2 D,2 B,,2 G,,2 | %6
w: |Ju- bi- la- te,||ju- bi- la- te, ju- bi- la- te|De- o o- mnis,|o- mnis, o- mnis|
[M:2/2] A,,8 | D,,8 | A,2 ^F,2 D,2 A,,2 | D,,8 | D,,4 D,2 B,,2 | F,2 D,2 C,2 B,,2 | C,8 | F,,8 | %14
w: ter-|ra,|o- mnis, o- mnis|ter-|ra, o- mnis,|o- mnis, o- mnis|ter-|ra.|
[M:2/2] z2 F,2 ^C,4 | D,2 z F, ^C,2 D,2 | (B,,4- B,,>A,,A,,>)G,, | A,,4 E,^F,G,A, | %18
w: Ser- vi-|te, ser- vi- te|Do\- * * * mi-|no in lae- ti- ti-|
 ^F,2 G,A, B,C A,2 | ^F,E, G,4 F,2 | G,8 | z4 G,2 B,2 | G,2 D,2 B,,2 D,2 | B,,2 G,,2 z4 | %24
w: a, in lae- ti- ti- a,|in lae- ti- ti-|a.|In- tro-|i- te, in- tro-|i- te,|
 G,2 G,2 B,2 G,2 | D,3 E, F,2 G,2 | F,8 | B,,4 F,2 A,2- | A,E, G,3 D, (F,2- | F,2 E,D, E,4) | %30
w: in- tro- i- te|in con- spe- ctu|e-|jus, in ex\-|* ul- ta- ti- o\-||
[M:2/2] D,8- | D,8 | z8 | z8 | z8 | z8 | z8 | z8 | z8 | z8 | z4 F,2 A,2 | F,2 C,2 A,,2 C,2 | %42
w: ne.||||||||||In- tro-|i- te, in- tro-|
 A,,2 F,,2 z4 | F,2 F,2 A,2 F,2 | C,3 D, E,2 G,2 | D,4 G,,4 | D,2 G,3 E, A,2- | A,D, (F,4 E,2) | %48
w: i- te,|in- tro- i- te|in con- spe- ctu|e- jus,|in ex- al- ta\-|* ti- o\- *|
 F,4 z4 | z8 | z2 F,2 D,3 B,, | F,3 A, B,4 | C8 |[M:2/2] z2 F,2 F,2 A,2 | D,2 D,D, G,2 G,G, | %55
w: ne,||in ex- al-|ta- ti- o-|ne.|Sci- to- te|quo- ni- am Do- mi- nus|
 E,2 E,E, F,4 | B,,8 | F,D,D,C, D,4 | F,2 G,2 z E, F,2 | (G,2 A,4) (G,/F,/E,/D,/) | ^C,8 | %61
w: i- pse es De-|us,|i- pse fe- cit nos,|et non, et non|i\- * psi * * *|nos,|
 A,^F,F,E, F,4 | A,2 B,2 z ^F, G,2 | z D, _E,2 z C, D,2 | B,,4 C,4 | F,,8 | z2 A,4 G,F, | %67
w: i- pse fe- cit nos,|et non, et non,|et non, et non|i- psi|nos,|po- pu- lus|
 E,2 D,B,, B,,B,,C,C,/C,/ | D,4 C,2 z C, | F,F,G,G,/G,/ A,4 | G,8 || (3F,6 G,2 A,4 | %72
w: e- jus et o- ves pa- scu- ae|e- jus, et|o- ves pa- scu- ae e-|jus.|A- tri- a,|
 (3D,6 E,2 F,4 || B,,8 |[M:2/2] A,,2 A,2 G,F,E,G, | F,6 _E,D, | D,4 C,4 || (3E,6 F,2 G,4 | %78
w: a- tri- a,|e-|jus in hy- mnis con- fi-|te- mi- ni|il- li,|a- tri- a,|
 (3C,6 D,2 E,4 || ^F,8 | G,4 z2 G,2 | F,_E,D,F, E,4- | E,2 D,D, (C,>D, A,,>B,, | C,8) | F,,8 | %85
w: a- tri- a|e-|jus in|hy- mnis con- fi- te-|* mi- ni il\- * * *||li.|
 z4 z C,D,E, | F,2 F,2 z E,F,G, | A,2 A,2 z G,A,B, | C6 F,2 | A,8 | D,8 | D,6 D,2 | D,4 D,4 | F,8 | %94
w: Lau- da- te|no- men, lau- da- te|no- men, lau- da- te|no- men|e-|jus,|quo- ni-|am su-|a-|
 ^C,4 C,4 | D,8 | A,,4 A,4 | B,8 | ^F,4 F,4 | G,8 | D,4 D,4 | _E,8 | =B,,4 B,,4 | C,8- | C,4 C,4 | %105
w: vis, su-|a-|vis, su-|a-|vis, su-|a-|vis, su-|a-|vis est|Do\-|* mi-|
 F,,8 | z8 |"^presto" F,G,A,F, B,,C,D,B,, | F,2 F,2 B,2 G,2 | F,2 D,2 B,,2 G,,2 | A,,8 | D,,8 | %112
w: nus.||Ju- bi- la- te, ju- bi- la- te|De- o o- mnis,|o- mnis, o- mnis|ter-|ra,|
 A,2 ^F,2 D,2 A,,2 | D,,8 | D,,4 D,2 B,,2 | F,2 D,2 C,2 B,,2 | C,8 | F,,8 | z2 F,F, F,4 | %119
w: o- mnis, o- mnis|ter-|ra, o- mnis,|o- mnis, o- mnis|ter-|ra.|In ae- ter-|
 F,4 z F,F,D, | =E,6 E,2 | ^C,4 D,4 | A,,4 z A,A,^F, | G,6 G,2 | ^F,4 G,4 | D,4 z2 B,,2 | %126
w: num mi- se- ri-|cor- di-|a e-|jus, mi- se- ri-|cor- di-|a e-|jus et|
 F,4 B,3 G, | F,G,A,B, C2 CC, | D,E,F,G, A,2 A,A,, | B,,C,D,E, F,2 F,F,, | G,,A,,B,,C, D,2 D,2 | %131
w: us- que in|ge- ne- ra- ti- o- nem et|ge- ne- ra- ti- o- nem, in|ge- ne- ra- ti- o- nem et|ge- ne- ra- ti- o- nem|
 z2 G,3 F, _E,2 | D,8 | G,,4 z2 F,,2 | C,4 F,3 D, | F,E,D,C, B,,2 B,,B,, | C,B,,A,,G,, F,,2 F,,F, | %137
w: ve- ri- tas|e-|jus, et|us- que in|ge- ne- ra- ti- o- nem et|ge- ne- ra- ti- o- nem, in|
 G,F,E,D, C,2 C,C, | D,C,B,,A,, G,,2 G,,2 | z2 A,,3 G,, F,,2 | C,8 | F,,8 || z8 | %143
w: ge- ne- ra- ti- o- nem et|ge- ne- ra- ti- o- nem|ve- ri- tas|e-|jus.||
 z2 F,F, C,2 F,,2 | z8 |"^presto" F,G,A,F, B,,C,D,B,, | F,2 F,2 B,2 G,2 | F,2 D,2 B,,2 G,,2 | %148
w: Ju- bi- la- te,||ju- bi- la- te, ju- bi- la- te|De- o o- mnis,|o- mnis, o- mnis|
 A,,8 | D,,8 | A,2 ^F,2 D,2 A,,2 | D,,8 | D,,4 D,2 B,,2 | F,2 D,2 C,2 B,,2 | C,8 | F,,16 |] %156
w: ter-|ra,|o- mnis, o- mnis|ter-|ra, o- mnis,|o- mnis, o- mnis|ter-|ra.|
V:4
 F,8- | F,2 F,F, C,2 F,,2 |"^presto" F,4 B,2 G,2 | F,4 B,,4 | F,4 B,2 G,2 | F,2 D,2 B,,2 G,,2 | %6
w: ||||||
[M:4/4] A,,6- A,,2 | D,,8- | D,,8 | D,,8 | D,,4 D,2 B,,2 | F,2 D,2 C,2 B,,2 | C,6- C,2 | F,,8 | %14
w: 3~~4 3||||||3~~4 3||
[M:4/4] F,4 ^C,4 | D,3 F, ^C,2 D,2 | B,,4 G,,4 | A,,8 | D,4 C,4 | D,6- D,2 | G,,8 | G,,8- | G,,8 | %23
w: |||||3~~~~~~~~~~~4 3||||
 G,,4 G,,4- | G,,4 G,,4 | D,3 E, F,2 _E,2 | F,6- F,2 | B,,4 D,2 A,,2 | C,2- C,G,, B,,2- B,,F,, | %29
w: |||3~4 3||6 5 * 6 5 *|
 A,,4- A,,4 |[M:4/4] D,,8- | D,,8 | D,,8 | C,2 B,,2 F,2- F,2 | B,,2 B,,2 ^F,,3 A,, | %35
w: 6 5||||6 * 4 3||
 G,,3 B,, D,3 D,, | G,,2 F,2 D,2 _E,2 | C,2 D,2 B,,2 C,2 | F,,8- | F,,8 | F,,8- | F,,8 | %42
w: * 6 4 *|||||||
 F,,4 F,,4- | F,,4 F,,4 | C,3 B,, A,,2 G,,2 | D,2- D,2 G,,4- | G,,2 G,,2 C,2- C,A,, | %47
w: |||4 3 *|* * * 6 *|
 D,3 B,, C,2- C,2 | F,,2 B,,2 _E,3 C, | D,3 B,, F,2- F,2 | B,,2 F,2 D,2- D,B,, | F,3 A, B,2- B,2 | %52
w: * * 4 3||* * 4 3|* * * 6 *|* * 5 6|
 C4- C4 |[M:4/4] F,4 F,2 A,2 | D,4 G,4 | E,4 F,4 | B,,8 | B,,8 | B,,2- B,,2 C,2 D,2 | B,,6- B,,2 | %60
w: 6 5|||6 *|||5 6 * *|6~~~7 6|
 A,,8 | D,,4 D,3 E, | ^F,2 G,2 D,2 _E,2 | =B,,2 C,2 A,,2 _B,,2 | G,,4 C,4 | F,,8 | F,,4 G,,4 | %67
w: |||||||
 A,,2 D,2 B,,2 C,2 | D,4 C,3 C, | F,2 G,2 A,4 | G,8 || (3F,6 G,2 A,4 | (3D,6 E,2 F,4 || %73
w: * * * 6||* 6 *||||
[M:2/2] B,,8 | A,,4 =B,,2 C,2 | D,2 A,,2 =B,,2 C,2 | G,,4 C,4 || (3:2:2C,8 B,,4 | %78
w: |* 6 *|* 6 * *||* 6|
 (3:2:2A,,8 G,,4 || D,,8 | G,,2 C,2 B,,A,,G,,B,, | A,,2 =B,,2 C,2 G,,2 | A,,2 B,,2 F,,4 | C,8 | %84
w: * 6|||6 * * *|||
 F,,8 | F,,8 | F,,8 | F,,8 | C,6 D,2 | A,,6- A,,2 | D,8 | D,6 D,2 | D,4 D,4 | F,8 | ^C,4 C,4 | %95
w: |||||3~~~~~4 3||||||
 D,8 | A,,4 A,4 | B,8 | ^F,4 F,4 | G,8 | D,4 D,4 | _E,8 | =B,,4 B,,4 | C,4- C,4 | C,4 C,4 | F,,8 | %106
w: ||||||||3 4|* 3||
"^presto" F,4 B,2 G,2 | F,4 B,,4 | F,4 B,2 G,2 | F,2 D,2 B,,2 G,,2 | A,,6- A,,2 | D,,8- | D,,8 | %113
w: ||||3~~4 3|||
 D,,8 | D,,4 D,2 B,,2 | F,2 D,2 C,2 B,,2 | C,6- C,2 | F,,8 | F,,8 | F,,4 F,2 D,2 | =E,6 E,2 | %121
w: |||3~~4 3|||||
 ^C,4 D,4 | A,,4 D,4 | G,6 G,2 | ^F,4 G,4 | D,4 B,,4 | F,4 B,2 G,2 | F,4 C,4 | D,4 A,,4 | %129
w: ||||||||
 B,,4 F,,4 | G,,4 D,4 | G,3 F, _E,4 | D,6- D,2 | G,,4 F,,4 | C,4 F,2 D,2 | F,4 B,,4 | C,4 F,,4 | %137
w: |||3~4 3|||||
 G,4 C,4 | D,4 G,,4 | A,,3 G,, F,,4 | C,8 | F,,8 || F,8- | F,2 F,F, C,2 F,,2 | %144
w: |||||||
"^presto" F,4 B,2 G,2 | F,4 B,,4 | F,4 B,2 G,2 | F,2 D,2 B,,2 G,,2 | A,,6- A,,2 | D,,8 | D,,8 | %151
w: ||||3~~4 3|||
 D,,8 | D,,4 D,2 B,,2 | F,2 D,2 C,2 B,,2 | C,8 | F,,16 |] %156
w: |||||

